X:424
T: WAS WILLST DU IN DER FREMDE THUN
N: E1615
O: Europa, Mitteleuropa, Deutschland, Schleswig, Westkueste; Hessen
R: Staende -, Handwerker -, Gesellen - Lied, Wanderschaft, Abschied
M: 2/4
L: 1/16
K: F
C2 | F3EF2G2 | A3GF2
A2 | G2c2e3d | c4z2
cc | c2B2G2d2 | d2c2A2
cc | c2B2G2d2 | d2c2A2
cc | e3dc2B2 | A4z2

@@@ Tune index: 5108
